X: 34
T:Trip to Durrow, The
M:C|
L:1/8
Q:120
S:THSP
R:reel
Z:
K:D
"D"D2 (3FED ADFA|dfed "G"~B3 c|"D"dBBA dBBA|FADE "A"FE~E2|
"D"D2 (3FED ADFA|dfed ~"G"B3c|"D"dBBA FAdB|"A"AFEG "D"FD~D2:|
"D"dcde ~f3g|afdf gfed|"A"(3Bcd ef gebe|gebe gfec|
"D"d2de ~f3g|afdf gfed|"A"(3Bcd ef gbag|"D"fd"A"ec "D"d2de|
fdec d2de|fded "G"~B3c|"D"dBBA dBBA|"G"FADE "A"FE~E2|
"D"D2 (3FED ADFA|dfed "G"~B3c|"D"dBBA FAdB|"A"AFEG "D"FD~D2|]
